theme/account.svg

<?xml version="1.0" encoding="UTF-8" standalone="no"?>
<svg xmlns:rdf="http://www.w3.org/1999/02/22-rdf-syntax-ns#" xmlns="http://www.w3.org/2000/svg" height="64" width="64" version="1.0" xmlns:cc="http://creativecommons.org/ns#" xmlns:xlink="http://www.w3.org/1999/xlink" xmlns:dc="http://purl.org/dc/elements/1.1/">
 <defs>
  <linearGradient id="a" y2="69.127" gradientUnits="userSpaceOnUse" x2="-18.398" gradientTransform="matrix(.93749 0 0 .93750 48.705 -2.957)" y1="5.2866" x1="-18.398">
   <stop offset="0"/>
   <stop stop-color="#363636" offset="1"/>
  </linearGradient>
 </defs>
 <path opacity=".7" style="block-progression:tb;color:#000000;text-transform:none;text-indent:0" d="m32.014 2.0032c-6.4921 0-12 4.7474-12 10.874 0.04608 1.9365 0.21927 4.3246 1.3749 9.3745v0.125l0.12499 0.125c0.37098 1.0626 0.91084 1.6705 1.6249 2.4999 0.71405 0.82937 1.5653 1.8055 2.3749 2.6249 0.09524 0.0964 0.15627 0.15612 0.24995 0.25003 0.16055 0.69862 0.35503 1.4505 0.49998 2.1249 0.38566 1.7943 0.34611 3.065 0.25003 3.4998-2.7899 0.97997-6.2601 2.1463-9.3744 3.5003-1.7483 0.75997-3.3307 1.4404-4.625 2.2483-1.2943 0.81109-2.5815 1.4239-2.9998 3.2498-0.00516 0.08324-0.00516 0.16675 0 0.25003-0.40882 3.7538-1.0272 9.2737-1.4999 13-0.10204 0.78425 0.31131 1.611 0.99996 1.9999 5.6546 3.0543 14.34 4.2835 22.999 4.2499 8.6584-0.0336 17.275-1.3353 22.749-4.2499 0.68865-0.38891 1.102-1.2156 0.99996-1.9999-0.15092-1.1646-0.33631-3.7907-0.49998-6.3746-0.16367-2.584-0.30575-5.1258-0.49994-6.6246-0.06775-0.37155-0.24343-0.72281-0.49998-0.99996-1.7388-2.0763-4.3366-3.3456-7.3745-4.6246-2.7736-1.1679-6.0249-2.3806-9.2496-3.7498-0.18047-0.40203-0.35975-1.5717 0-3.3748 0.0984-0.48318 0.24959-1.002 0.37678-1.4991 0.30279-0.33919 0.53918-0.61678 0.87476-0.99996 0.71597-0.81717 1.4859-1.6747 2.1259-2.4999 0.63997-0.82517 1.16-1.5327 1.4999-2.4999l0.124-0.1248c1.3065-5.273 1.3072-7.4733 1.3749-9.3745v-0.12852c0-6.127-5.5074-10.874-12-10.874z" fill="url(#a)"/>
</svg>

<?xml version="1.0" encoding="UTF-8" standalone="no"?>
<!DOCTYPE svg PUBLIC "-//W3C//DTD SVG 1.1//EN" "http://www.w3.org/Graphics/SVG/1.1/DTD/svg11.dtd">
<svg width="100%" height="100%" viewBox="0 0 64 64"
    xmlns="http://www.w3.org/2000/svg" version="1.1">
    <path d="M32.014,2.003C25.522,2.003 20.014,6.751 20.014,12.877C20.06,14.814 20.233,17.202 21.389,22.252L21.389,22.377L21.514,22.502C21.885,23.564 22.425,24.172 23.139,25.002C23.853,25.831 24.704,26.807 25.514,27.627C25.609,27.723 25.67,27.783 25.764,27.877C25.924,28.575 26.119,29.327 26.264,30.001C26.649,31.796 26.61,33.066 26.514,33.501C23.724,34.481 20.254,35.648 17.139,37.002C15.391,37.762 13.809,38.442 12.514,39.25C11.22,40.061 9.933,40.674 9.514,42.5C9.509,42.583 9.509,42.666 9.514,42.75C9.106,46.503 8.487,52.023 8.015,55.75C7.913,56.534 8.326,57.361 9.015,57.75C14.669,60.804 23.355,62.033 32.014,61.999C40.672,61.966 49.289,60.664 54.763,57.75C55.451,57.361 55.865,56.534 55.762,55.75C55.612,54.585 55.426,51.959 55.262,49.375C55.099,46.791 54.957,44.249 54.763,42.75C54.695,42.379 54.519,42.028 54.263,41.751C52.524,39.674 49.926,38.405 46.888,37.126C44.114,35.958 40.863,34.745 37.638,33.376C37.458,32.974 37.279,31.804 37.638,30.001C37.737,29.518 37.888,28.999 38.015,28.502C38.318,28.163 38.554,27.885 38.89,27.502C39.606,26.685 40.376,25.828 41.016,25.002C41.656,24.177 42.176,23.47 42.516,22.502L42.64,22.378C43.946,17.105 43.947,14.904 44.015,13.003L44.015,12.875C44.015,6.748 38.507,2.001 32.015,2.001L32.014,2.003Z" style="fill:url(#_Linear1);fill-rule:nonzero;"/>
    <defs>
        <linearGradient id="_Linear1" x1="0" y1="0" x2="1" y2="0" gradientUnits="userSpaceOnUse" gradientTransform="matrix(3.66478e-15,59.8504,-59.8504,3.66478e-15,31.4571,1.99919)">
            <stop offset="0" style="stop-color:black;stop-opacity:0.7"/>
            <stop offset="1" style="stop-color:rgb(54,54,54);stop-opacity:0.7"/>
        </linearGradient>
    </defs>
</svg>
